!!!SOCIAL_FUNCTION:	songs of war
!!!PDT:	1918

Specific Region: Dakotas, Minnesota, Montana, Nebraska
!!!REG: Dakotas and Montana
!!!LING_GROUP: Siouan
!!!LANG: Tone
!!!OTL@ENG: Learn the Songs of Victory
!!!ONM: No. 149
**kern
*Ifeme
*clefG2
*k[f#c#g#]
*M3/4
*MM116
4f#
4f#
4f#
=1||
*M2/4
4cc#
12cc#
12b
12b
=2||
*M3/4
4b
8b
[8b
4b]
=3
4b
2b
=4
2.b
=5||
*M2/4
4cc#
12cc#
12dd
12cc#
=6
4.b
8a
=7
4a
8.a
16f#
=8
4f#
4f#
=9
[2f#
=10
2f#_
=11||
*M3/4
2.f#]
=12||
*M2/4
4f#
4f#
=13
4b
4b
=14||
*M3/4
[2b
8b]
16cc#
16b
=15||
*M2/4
4b
4b
=16
4f#
4f#
=17||
*M3/4
4e
4d
4d
=18||
*M2/4
4e
4d
=19
4B
4B
=20
[2B
=21
2B_
=22||
*M3/4
2.B]
=23||
*M2/4
2B
=24
4f#
4f#
=25||
*M3/4
2f#
16g#
8.f#
=26
2e
4d
=27||
*M2/4
8.d
16B
4B
=28
4.B
8G#
=29
2B
=30
4G#
4G#
=31||
*M3/4
2.G#
=32
4G#
2r
=33||
*M2/4
4f#
4f#
=34
4cc#
(16dd
8.cc#)
=35
2b
=36
[2b
=37
4b]
4b
=38
4b
4cc#
=39
16cc#
8.b
4b
=40
4a
4a
=41
4f#
4f#
=42
[2f#
=43
2f#_
=44||
*M3/4
2.f#]
=45||
*M2/4
4f#
4f#
=46
4.b
8b
=47
2b
=48||
*M3/4
4b
4b
(16cc#
8.b)
=49||
*M2/4
4.b
8a
=50||
*M3/4
4f#
4f#
(8.e
16d)
=51||
*M2/4
8d
[8d
4d]
=52
(8e
8d)
4d
=53
8d
8B
4B
=54
4.B
8B
=55
[2B
=56||
*M3/4
2.B]
=57||
*M2/4
4B
4B
=58
4.f#
(16a
16g#)
=59
2f#
=60
(8f#
8e)
4e
=61
2e
=62
4.d
8d
=63
4B
4B
=64
4B
4G#
=65
2B
=66
4G#
4r
==
*-
!!!CNT: Native American -- Sioux
!!!MRD: 1911/07//-1914///
!!!OCL: Frances Densmore
!!!YOR1: Teton Sioux Music, Bulletin 61,
!!!YOR2: Bureau of American Ethnology, Smithsonian Institution
!!!PPR: Government Printing Office
!!!PPP: Washington, D.C.
!!!PDT: 1918///
!!!ENC: Craig Stuart Sapp
!!!END: 2002/03/25/
!!!EEV: 2002/03/31/
!!!AGN: War Song/Song of a Typical War Expedition
!!!MPN@@SIO: Ini'laoeng'wing
!!!MPN@ENG: Silent Woman
!!!TXO: Teton Sioux
!!!MLC: Standing Rock Reservation, South Dakota, United States of America
!!!ARL: 45.9/-100.7#
!!!catalog: Catalogue No. 685
!!!PPG: 368
!!!EFL: 153/245
!!!VTS: 2950501839
